templates/main/source/images/sov-com.svg

<?xml version="1.0" encoding="utf-8"?>
<svg width="240px" height="30px" viewBox="0 0 240 30" version="1.1" xmlns:xlink="http://www.w3.org/1999/xlink" xmlns="http://www.w3.org/2000/svg">
  <desc>Created with Lunacy</desc>
  <defs>
    <path d="M0 0L15.383 0L15.383 29.5789L0 29.5789L0 0Z" transform="translate(5.2173913E-05 0.16022609)" id="path_1" />
    <clipPath id="mask_1">
      <use xlink:href="#path_1" />
    </clipPath>
  </defs>
  <g id="Group-26">
    <path d="M9.76226 0L9.76226 7.68783L6.80609 7.68783C3.048 7.68783 0 10.7337 0 14.4908C0 18.2499 3.048 21.2937 6.80609 21.2937L9.76226 21.2937L9.76226 28.9837C16.5151 27.6157 21.5943 21.6475 21.5943 14.4908C21.5943 7.33565 16.5151 1.36957 9.76226 0" transform="translate(7.984375 0.4580078)" id="Fill-1" fill="#213A8F" stroke="none" />
    <g id="Group-5">
      <path d="M0 0L15.383 0L15.383 29.5789L0 29.5789L0 0Z" transform="translate(5.2173913E-05 0.16022609)" id="Clip-4" fill="none" stroke="none" />
      <g clip-path="url(#mask_1)">
        <path d="M14.7903 23.9583C9.72522 23.9583 5.62122 19.8532 5.62122 14.7887C5.62122 9.72417 9.72522 5.6207 14.7903 5.6207L15.383 5.6207L15.383 0.0135652C15.1852 0.00782609 14.9885 0 14.7903 0C6.62296 0 0 6.62139 0 14.7887C0 22.957 6.62296 29.579 14.7903 29.579C14.9885 29.579 15.1852 29.5753 15.383 29.5654L15.383 23.9583L14.7903 23.9583Z" transform="translate(5.2173913E-05 0.16022609)" id="Fill-3" fill="#E9515A" stroke="none" />
      </g>
    </g>
    <path d="M14.2289 15.1143C13.0758 16.0701 11.5951 16.645 9.98035 16.645C6.30052 16.645 3.31774 13.6617 3.31774 9.98139C3.31774 6.30157 6.30052 3.31826 9.98035 3.31826C11.6619 3.31826 13.1932 3.94539 14.3656 4.97322L16.7113 2.62644C14.9358 1.0007 12.5781 0 9.98035 0C4.46817 0 0 4.4687 0 9.98139C0 15.4946 4.46817 19.9628 9.98035 19.9628C12.5113 19.9628 14.8153 19.0132 16.5746 17.461L14.2289 15.1143Z" transform="translate(36.23047 4.96875)" id="Fill-6" fill="#E9515A" stroke="none" />
    <path d="M17.7537 0L10.4035 8.87374L2.9953 0L2.95774 0.0850435L2.95774 0L0 0.0026087L0 18.3856L2.95774 18.3856L2.95774 4.91739L10.4035 13.7713L17.7537 5.09583L17.7537 18.3856L20.7099 18.3856L20.7099 0.0026087L17.7537 0Z" transform="translate(138.85547 5.7373047)" id="Fill-8" fill="#E9515A" stroke="none" />
    <path d="M9.98087 19.9628C15.493 19.9628 19.9612 15.4941 19.9612 9.98139C19.9612 4.4687 15.493 0 9.98087 0C4.46817 0 0 4.4687 0 9.98139C0 15.4941 4.46817 19.9628 9.98087 19.9628ZM9.98087 3.31826C13.6607 3.31826 16.6435 6.30157 16.6435 9.98139C16.6435 13.6617 13.6607 16.645 9.98087 16.645C6.30209 16.645 3.31774 13.6617 3.31774 9.98139C3.31774 6.30157 6.30209 3.31826 9.98087 3.31826Z" transform="translate(55.09375 4.96875)" id="Fill-10" fill="#E9515A" fill-rule="evenodd" stroke="none" />
    <path d="M9.98087 19.9628C15.493 19.9628 19.9617 15.4941 19.9617 9.98139C19.9617 4.4687 15.493 0 9.98087 0C4.4687 0 0 4.4687 0 9.98139C0 15.4941 4.4687 19.9628 9.98087 19.9628ZM9.98087 3.31826C13.6607 3.31826 16.6435 6.30157 16.6435 9.98139C16.6435 13.6617 13.6607 16.645 9.98087 16.645C6.30209 16.645 3.31826 13.6617 3.31826 9.98139C3.31826 6.30157 6.30209 3.31826 9.98087 3.31826Z" transform="translate(115.859375 4.96875)" id="Fill-12" fill="#E9515A" fill-rule="evenodd" stroke="none" />
    <path d="M17.6024 0L13.6111 0L6.02139 7.74939L2.9567 7.74939L2.9567 0.00730435L0 0.00730435L0 18.3897L2.9567 18.3897L2.9567 10.7071L5.99374 10.7071L13.513 18.3736L17.5049 18.3736L8.54869 9.24365L17.6024 0Z" transform="translate(98.22266 5.7333984)" id="Fill-14" fill="#E9515A" stroke="none" />
    <path d="M17.603 0L13.6116 0L6.02139 7.74939L2.95774 7.74939L2.95774 0.00730435L0 0.00730435L0 18.3897L2.95774 18.3897L2.95774 10.7071L5.99374 10.7071L13.5136 18.3736L17.5054 18.3736L8.54921 9.24365L17.603 0Z" transform="translate(221.98438 5.7333984)" id="Fill-16" fill="#213A8F" stroke="none" />
    <path d="M19.5271 18.3856L16.2678 18.3856L14.507 14.4193L5.02017 14.4193L3.2593 18.3856L0 18.3856L8.10365 0L11.424 0L19.5271 18.3856ZM9.7633 3.73826L6.33391 11.4621L13.1932 11.4621L9.7633 3.73826Z" transform="translate(180.09375 5.7373047)" id="Fill-18" fill="#213A8F" fill-rule="evenodd" stroke="none" />
    <path d="M14.3645 9.18C15.3803 10.1499 16.0174 11.5137 16.0174 13.0257C16.0174 15.9464 13.6534 18.323 10.739 18.349L10.739 18.3574L0 18.3574L0 0L10.739 0L10.739 0.012C13.6529 0.0370435 16.0163 2.41357 16.0163 5.33426C16.0163 6.84626 15.3798 8.20957 14.3645 9.18ZM2.9567 2.95774L10.693 2.95774L10.693 2.96713C11.9979 2.96713 13.0597 4.02887 13.0597 5.33426C13.0597 6.63913 11.999 7.70035 10.6941 7.70139L10.692 7.70087L10.692 7.70557L2.9567 7.70557L2.9567 2.95774ZM10.692 15.3997L10.692 15.3939C11.9979 15.3939 13.0597 14.3317 13.0597 13.0257C13.0597 11.736 12.0219 10.6878 10.7374 10.6633L2.9567 10.6633L2.9567 15.3997L10.692 15.3997Z" transform="translate(78.46875 5.7773438)" id="Fill-20" fill="#E9515A" fill-rule="evenodd" stroke="none" />
    <path d="M13.692 0L13.692 7.70556L2.95722 7.70556L2.95722 0L0 0L0 18.2911L2.95722 18.2911L2.95722 10.6633L13.692 10.6633L13.692 18.2911L16.6492 18.2911L16.6492 0L13.692 0Z" transform="translate(201.69922 5.776367)" id="Fill-22" fill="#213A8F" stroke="none" />
    <path d="M10.693 7.70087C13.6289 7.70087 16.0179 10.0894 16.0179 13.0257C16.0179 15.9464 13.6539 18.323 10.74 18.349L10.74 18.3574L0 18.3574L0 0L14.2278 0L14.2278 2.95774L2.95722 2.95774L2.95722 7.70557L10.693 7.70557L10.693 7.70087ZM10.693 15.3997L10.693 15.3939C11.999 15.3939 13.0602 14.3317 13.0602 13.0257C13.0602 11.736 12.023 10.6878 10.7384 10.6633L2.95722 10.6633L2.95722 15.3997L10.693 15.3997Z" transform="translate(163.02344 5.7773438)" id="Fill-24" fill="#213A8F" fill-rule="evenodd" stroke="none" />
  </g>
</svg>

<svg width="240" height="30" viewBox="0 0 240 30" xmlns:xlink="http://www.w3.org/1999/xlink" xmlns="http://www.w3.org/2000/svg"><defs><clipPath id="mask_1"><use xlink:href="#path_1"/></clipPath><path d="M0 0h15.383v29.579H0V0z" transform="translate(0 .16)" id="path_1"/></defs><g id="Group-26"><path d="M9.762 0v7.688H6.806a6.804 6.804 0 100 13.606h2.956v7.69c6.753-1.368 11.832-7.337 11.832-14.493C21.594 7.336 16.515 1.37 9.762 0" transform="translate(7.984 .458)" id="Fill-1" fill="#213A8F" stroke="none"/><g id="Group-5"><path d="M0 0h15.383v29.579H0V0z" transform="translate(0 .16)" id="Clip-4" fill="none" stroke="none"/><g clip-path="url(#mask_1)"><path d="M14.79 23.958a9.168 9.168 0 01-9.169-9.17 9.167 9.167 0 019.17-9.167h.592V.014C15.185.008 14.989 0 14.79 0 6.623 0 0 6.621 0 14.789s6.623 14.79 14.79 14.79c.199 0 .395-.004.593-.014v-5.607h-.593z" transform="translate(0 .16)" id="Fill-3" fill="#E9515A" stroke="none"/></g></g><path d="M14.229 15.114A6.663 6.663 0 013.318 9.981 6.663 6.663 0 019.98 3.318a6.63 6.63 0 014.386 1.655l2.345-2.347A9.933 9.933 0 009.981 0C4.467 0 0 4.469 0 9.981c0 5.514 4.468 9.982 9.98 9.982 2.531 0 4.835-.95 6.595-2.502l-2.346-2.347z" transform="translate(36.23 4.969)" id="Fill-6" fill="#E9515A" stroke="none"/><path d="M17.754 0l-7.35 8.874L2.994 0l-.037.085V0L0 .003v18.383h2.958V4.917l7.445 8.854 7.35-8.675v13.29h2.957V.003L17.754 0z" transform="translate(138.855 5.737)" id="Fill-8" fill="#E9515A" stroke="none"/><path d="M9.98 19.963c5.513 0 9.981-4.469 9.981-9.982C19.961 4.47 15.493 0 9.981 0 4.468 0 0 4.469 0 9.981c0 5.513 4.468 9.982 9.98 9.982zm0-16.645a6.663 6.663 0 016.663 6.663 6.663 6.663 0 11-6.662-6.663z" transform="translate(55.094 4.969)" id="Fill-10" fill="#E9515A" fill-rule="evenodd" stroke="none"/><path d="M9.98 19.963c5.513 0 9.982-4.469 9.982-9.982C19.962 4.47 15.493 0 9.98 0S0 4.469 0 9.981c0 5.513 4.469 9.982 9.98 9.982zm0-16.645a6.663 6.663 0 016.663 6.663 6.663 6.663 0 11-6.662-6.663z" transform="translate(115.86 4.969)" id="Fill-12" fill="#E9515A" fill-rule="evenodd" stroke="none"/><path d="M17.602 0h-3.99l-7.59 7.75H2.956V.006H0V18.39h2.957v-7.683h3.037l7.519 7.667h3.992l-8.956-9.13L17.602 0z" transform="translate(98.223 5.733)" id="Fill-14" fill="#E9515A" stroke="none"/><path d="M17.603 0h-3.991l-7.59 7.75H2.957V.006H0V18.39h2.958v-7.683h3.036l7.52 7.667h3.991L8.55 9.244 17.603 0z" transform="translate(221.984 5.733)" id="Fill-16" fill="#213A8F" stroke="none"/><path d="M19.527 18.386h-3.26l-1.76-3.967H5.02l-1.76 3.967H0L8.104 0h3.32l8.103 18.386zM9.763 3.738l-3.43 7.724h6.86l-3.43-7.724z" transform="translate(180.094 5.737)" id="Fill-18" fill="#213A8F" fill-rule="evenodd" stroke="none"/><path d="M14.364 9.18a5.304 5.304 0 011.653 3.846 5.33 5.33 0 01-5.278 5.323v.008H0V0h10.739v.012a5.329 5.329 0 015.277 5.322 5.306 5.306 0 01-1.651 3.846zM2.957 2.958h7.736v.01a2.37 2.37 0 012.367 2.366 2.37 2.37 0 01-2.366 2.367h-.002v.005H2.957V2.958zM10.692 15.4v-.006a2.37 2.37 0 002.368-2.368 2.367 2.367 0 00-2.323-2.363h-7.78V15.4h7.735z" transform="translate(78.469 5.777)" id="Fill-20" fill="#E9515A" fill-rule="evenodd" stroke="none"/><path d="M13.692 0v7.706H2.957V0H0v18.291h2.957v-7.628h10.735v7.628h2.957V0h-2.957z" transform="translate(201.7 5.776)" id="Fill-22" fill="#213A8F" stroke="none"/><path d="M10.693 7.7a5.33 5.33 0 015.325 5.326 5.33 5.33 0 01-5.278 5.323v.008H0V0h14.228v2.958H2.958v4.748h7.735V7.7zm0 7.7v-.006a2.37 2.37 0 002.367-2.368 2.366 2.366 0 00-2.322-2.363h-7.78V15.4h7.735z" transform="translate(163.023 5.777)" id="Fill-24" fill="#213A8F" fill-rule="evenodd" stroke="none"/></g></svg>
